X:1
T:Title
L:1/8
M:4/4
I:linebreak $
K:D
V:1 treble nm="Voice" snm="Voice"
V:1
 A2 Bd |: f2 f2 dABd | fa f d3 A2 | FDED FDED | FD E2 F2 D2 | GA B d2 e2 dB |$ G2 [Ag]2 B d2 e | %7
 DE F2 A2 B AF | DE F2 A2 B AF | =c2 c2 BAAB | =cA B c4- c | fedB ABAF |$ D2 D2 D2 A2 :|1 %13
 D2 D2 D2 a f2 |: d4- ddBA | D2 D2 D2 a f2 | d4- ddBA |$ D2 D2 D2 D2 | GA B d2 e dB | %19
 GA B d2 e dB | DE F2 A2 B AF | DE F2 A2 B AF |$ c2 c2 BAAB | cA B c4- c | fedB ABAF |1 %25
 D2 D2 D2 a f2 :|2 D2 D2 D- D4 |] %27
